lib/healthicons/icons/solid/symbols/award_trophy.svg

<svg fill="none" height="48" viewBox="0 0 48 48" width="48" xmlns="http://www.w3.org/2000/svg"><path clip-rule="evenodd" d="m12 7c0-.55228.4477-1 1-1h22c.5523 0 1 .44772 1 1v1h5c.5523 0 1 .44772 1 1v6c0 2.7614-2.2386 5-5 5h-1.6828c-1.4325 4.0529-4.9805 7.1065-9.3172 7.8341v6.1659h6c.5523 0 1 .4477 1 1v6c0 .5523-.4477 1-1 1h-16c-.5523 0-1-.4477-1-1v-6c0-.5523.4477-1 1-1h6v-6.1659c-4.3367-.7276-7.8847-3.7812-9.3172-7.8341h-1.6828c-2.76142 0-5-2.2386-5-5v-6c0-.55228.44772-1 1-1h5zm24 9v-6h4v5c0 1.6569-1.3431 3-3 3h-1zm-24-6h-4v5c0 1.6569 1.34315 3 3 3h1v-2z" fill="#333" fill-rule="evenodd"/></svg>

<svg width="48" height="48" viewBox="0 0 48 48" fill="none" xmlns="http://www.w3.org/2000/svg">
<path fill-rule="evenodd" clip-rule="evenodd" d="M12 7C12 6.44772 12.4477 6 13 6H35C35.5523 6 36 6.44772 36 7V8H41C41.5523 8 42 8.44772 42 9V15C42 17.7614 39.7614 20 37 20H35.3172C33.8847 24.0529 30.3367 27.1065 26 27.8341V34H32C32.5523 34 33 34.4477 33 35V41C33 41.5523 32.5523 42 32 42H16C15.4477 42 15 41.5523 15 41V35C15 34.4477 15.4477 34 16 34H22V27.8341C17.6633 27.1065 14.1153 24.0529 12.6828 20H11C8.23858 20 6 17.7614 6 15V9C6 8.44772 6.44772 8 7 8H12V7ZM36 16V10H40V15C40 16.6569 38.6569 18 37 18H36V16ZM12 10H8V15C8 16.6569 9.34315 18 11 18H12V16V10Z" fill="#333333"/>
</svg>
